src/components/Categories/knife_sharpeners.svg

<svg width="46" height="46" viewBox="0 0 46 46" fill="none" xmlns="http://www.w3.org/2000/svg">
<path d="M41.9511 0C42.8375 0.203646 43.6641 0.503125 44.3589 1.11406C46.5271 3.01875 46.5391 6.21719 44.3708 8.19375C41.9151 10.4219 39.4594 12.626 36.9917 14.8302C36.836 14.974 36.6922 15.1057 36.5125 15.2734C36.6922 15.4651 36.836 15.6208 36.9917 15.7766C37.8182 16.7229 37.7703 18.1245 36.9078 18.987C36.0214 19.8615 34.6438 19.8974 33.7094 19.0349C33.3141 18.6755 32.9787 18.2443 32.6432 17.8969C31.0261 19.5021 29.4927 21.0474 27.8755 22.6526C28.6901 23.4432 29.5646 24.2698 30.4031 25.1083C33.386 28.0911 36.3568 31.0859 39.3396 34.0807C39.8787 34.6318 40.0104 35.1708 39.7229 35.7339C39.5193 36.1411 39.1719 36.3448 38.7406 36.4526C36.261 37.0635 33.8412 36.776 31.4813 35.8776C28.6542 34.7995 26.3422 32.9786 24.2219 30.8703C23.4552 30.1036 22.6646 29.337 21.862 28.5344C21.7422 28.6422 21.6224 28.762 21.4906 28.8818C16.9386 33.4339 12.3745 37.974 7.83439 42.538C6.87606 43.4964 5.82189 44.263 4.58804 44.826C3.9771 45.1016 3.39012 45.425 2.77918 45.7245C1.59325 46.2995 0.539079 45.8802 0.0599121 44.6464C0.0479329 44.6104 0.0119954 44.5745 -0.0119629 44.5385C-0.0119629 44.275 -0.0119629 43.9995 -0.0119629 43.724C0.38335 42.9214 0.790641 42.1307 1.162 41.3161C1.737 40.0823 2.5396 39.0161 3.49793 38.0578C8.03804 33.5417 12.5542 29.0016 17.0943 24.4734C17.2141 24.3536 17.3938 24.2818 17.5615 24.174C17.3339 23.9344 17.238 23.8266 17.1422 23.7188C16.3276 22.9042 15.513 22.0896 14.7104 21.263C13.7521 20.2807 13.7521 18.9271 14.6985 17.9208C14.8662 17.7411 15.0698 17.5974 15.1896 17.4057C15.3094 17.2021 15.4651 16.8906 15.3813 16.7229C15.1177 16.124 14.6865 15.6328 14.0396 15.3812C13.213 15.0458 12.3266 14.8062 11.5719 14.351C9.12814 12.8776 7.46304 10.6974 6.26512 8.13385C5.95366 7.46302 5.4745 6.82812 5.03127 6.16927C4.82762 5.86979 4.50418 5.77396 4.15679 5.85781C3.80939 5.94167 3.64168 6.20521 3.60575 6.54062C3.54585 7.01979 3.30627 7.35521 2.85106 7.49896C2.38387 7.64271 2.0245 7.45104 1.6771 7.13958C0.850537 6.3849 0.2396 5.51042 1.62767e-05 4.40833C1.62767e-05 4.04896 1.62767e-05 3.68958 1.62767e-05 3.33021C0.0359538 3.2224 0.0718913 3.1026 0.0958496 2.99479C0.443245 1.68906 1.22189 0.754687 2.4797 0.263542C2.75522 0.155729 3.04272 0.0838542 3.33022 0C3.6896 0 4.04897 0 4.40835 0C5.63022 0.251562 6.49272 1.05417 7.34325 1.91667C12.5781 7.19948 17.825 12.4703 23.0719 17.7411C23.1917 17.8729 23.2755 18.0406 23.3474 18.1484C24.9766 16.5312 26.5099 15.0099 28.1271 13.4047C27.7677 13.0693 27.3724 12.7458 27.025 12.3865C26.1026 11.4281 26.0906 10.0146 26.9771 9.11615C27.8516 8.22969 29.3011 8.20573 30.2714 9.06823C30.4151 9.2 30.5469 9.33177 30.7386 9.49948C30.8344 9.37969 30.9182 9.27187 31.0141 9.17604C33.2422 6.69635 35.4584 4.19271 37.7224 1.74896C38.2136 1.2099 38.8604 0.790625 39.4834 0.407292C39.8307 0.191667 40.2979 0.131771 40.7052 0C41.1125 0 41.5438 0 41.9511 0ZM38.1177 35.0391C31.7209 28.6062 25.3719 22.2214 19.0349 15.8604C17.9807 16.8906 16.9625 17.8969 15.9443 18.9151C15.3813 19.4781 15.3813 19.8135 15.9563 20.4005C18.2084 22.6646 20.4485 24.9286 22.7005 27.1807C24.1261 28.5943 25.5156 30.0437 27.013 31.3734C29.2292 33.338 31.7448 34.7755 34.7396 35.1828C35.8417 35.3266 36.9438 35.3146 38.1177 35.0391ZM35.4584 14.1714C38.1417 11.7516 40.825 9.34375 43.4964 6.92396C44.1193 6.36094 44.4307 5.61823 44.4667 4.76771C44.5146 3.47396 43.7479 2.28802 42.562 1.7849C41.3281 1.26979 39.9625 1.55729 39.0281 2.56354C37.962 3.72552 36.9198 4.89948 35.8776 6.06146C34.524 7.55885 33.1823 9.05625 31.8526 10.5297C33.0625 11.7396 34.2485 12.9375 35.4584 14.1714ZM18.6156 25.1802C18.4839 25.3 18.424 25.3479 18.3761 25.4078C13.6443 30.1396 8.91252 34.8714 4.19272 39.6151C3.76147 40.0464 3.37814 40.5375 3.07866 41.0646C2.55158 41.987 2.09637 42.9453 1.64116 43.9036C1.58127 44.0354 1.59325 44.263 1.66512 44.3708C1.71304 44.4427 1.97658 44.4307 2.09637 44.3708C2.58752 44.1552 3.0547 43.8917 3.54585 43.6641C4.71981 43.113 5.79793 42.4542 6.72033 41.5198C11.2604 36.9437 15.8365 32.3917 20.4005 27.8276C20.5203 27.7078 20.7 27.6359 20.9156 27.4922C20.3287 26.9292 19.8735 26.4979 19.4302 26.0547C19.1667 25.7792 18.9151 25.4917 18.6156 25.1802ZM2.30002 5.54635C3.33022 3.7974 5.43856 3.98906 6.40887 5.41458C6.8521 6.07344 7.30731 6.73229 7.63075 7.43906C8.39741 9.10417 9.40366 10.5896 10.7214 11.8714C11.6797 12.8057 12.8057 13.4766 14.0995 13.8359C14.2313 13.8719 14.4349 13.8599 14.5307 13.788C14.962 13.4167 15.3573 13.0214 15.7886 12.6141C15.6807 12.4823 15.6209 12.4224 15.561 12.3505C12.2307 9.00833 8.91252 5.66615 5.58231 2.32396C5.48647 2.22812 5.39064 2.13229 5.28283 2.06042C4.31252 1.30573 2.91095 1.42552 2.12033 2.33594C1.28179 3.27031 1.35366 4.63594 2.30002 5.54635ZM29.2531 14.6984C27.7078 16.2318 26.1745 17.7651 24.7011 19.2266C25.3959 19.9094 26.1266 20.6281 26.7854 21.275C28.2589 19.8016 29.7922 18.2682 31.2896 16.7708C30.6307 16.088 29.912 15.3693 29.2531 14.6984ZM36.1771 17.3578C35.9735 17.0703 35.8417 16.8068 35.638 16.6031C33.5656 14.5188 31.4932 12.4464 29.4089 10.3859C29.3011 10.2781 29.2052 10.1224 29.0735 10.0984C28.8099 10.0505 28.4865 9.97865 28.2709 10.0865C28.0792 10.1823 27.8636 10.5057 27.8755 10.7094C27.8875 10.9729 28.0672 11.2724 28.2709 11.4641C30.3313 13.5484 32.4156 15.6208 34.488 17.6932C34.6078 17.813 34.7156 17.9807 34.8594 18.0047C35.1229 18.0526 35.4344 18.1005 35.662 18.0047C35.8656 17.9089 35.9854 17.6214 36.1771 17.3578ZM16.9146 13.7401C16.5193 14.0875 16.1479 14.4109 15.7886 14.7344C16.124 15.1297 16.4474 15.501 16.699 15.7885C17.0703 15.4292 17.4656 15.0578 17.8849 14.6625C17.6453 14.4349 17.3818 14.1833 17.1302 13.9437C17.0344 13.8479 16.9505 13.7641 16.9146 13.7401Z" fill=""/>
<path d="M18.4121 36.7281C18.448 36.6323 18.484 36.4766 18.5559 36.3328C19.023 35.3984 19.4783 34.4641 19.9574 33.5297C20.221 33.0146 20.6283 32.8469 21.0475 33.0625C21.4668 33.2781 21.5746 33.7094 21.323 34.2125C20.8439 35.1708 20.3647 36.1292 19.8855 37.0995C19.6939 37.4828 19.3824 37.6505 18.9632 37.5427C18.6158 37.4229 18.4241 37.1594 18.4121 36.7281Z" fill=""/>
<path d="M23.7788 36.0333C23.7788 35.5422 23.7668 35.051 23.7788 34.5479C23.7907 34.0568 24.0782 33.7573 24.4975 33.7333C24.9407 33.7094 25.2881 34.0208 25.3001 34.512C25.3241 35.5182 25.3241 36.5125 25.3001 37.5187C25.2881 38.0099 24.9407 38.3333 24.5095 38.3213C24.0902 38.3094 23.8027 37.9859 23.7788 37.5068C23.7668 37.0276 23.7788 36.5365 23.7788 36.0333Z" fill=""/>
<path d="M16.9146 13.7401C16.9386 13.7641 17.0344 13.8479 17.1183 13.9318C17.3818 14.1833 17.6334 14.4229 17.873 14.6505C17.4537 15.0578 17.0584 15.4292 16.687 15.7766C16.4355 15.4891 16.124 15.1177 15.7766 14.7224C16.148 14.4109 16.5193 14.0875 16.9146 13.7401Z" fill="#878787"/>
<path d="M13.8001 25.4557C13.7043 25.5755 13.5605 25.863 13.3329 25.9828C12.3506 26.5099 11.3444 27.001 10.3381 27.4922C9.91885 27.6958 9.4876 27.5521 9.29594 27.1807C9.09229 26.7974 9.23604 26.3542 9.66729 26.1266C10.6616 25.6114 11.6558 25.1083 12.6621 24.6292C13.2131 24.3656 13.7881 24.713 13.8001 25.4557Z" fill=""/>
<path d="M10.7214 22.2333C10.2423 22.2333 9.76311 22.2453 9.28394 22.2333C8.76884 22.2213 8.45738 21.9338 8.4454 21.4906C8.43342 21.0474 8.74488 20.7239 9.24801 20.712C10.2303 20.688 11.2246 20.688 12.2069 20.712C12.71 20.7239 13.0214 21.0474 13.0214 21.4786C13.0214 21.9219 12.71 22.2213 12.1949 22.2333C11.7037 22.2453 11.2126 22.2333 10.7214 22.2333Z" fill=""/>
</svg>

<svg xmlns="http://www.w3.org/2000/svg" width="46" height="46" fill="none"><path d="M41.951 0c.886.204 1.713.503 2.408 1.114 2.168 1.905 2.18 5.103.012 7.08a1270.955 1270.955 0 0 1-7.38 6.636l-.478.443c.18.192.323.348.479.504.826.946.778 2.348-.084 3.21a2.289 2.289 0 0 1-3.199.048c-.395-.36-.73-.79-1.066-1.138-1.617 1.605-3.15 3.15-4.768 4.756.815.79 1.69 1.617 2.528 2.455 2.983 2.983 5.954 5.978 8.937 8.973.539.55.67 1.09.383 1.653-.204.407-.551.61-.982.719-2.48.61-4.9.323-7.26-.575-2.827-1.078-5.139-2.9-7.26-5.008-.766-.766-1.556-1.533-2.359-2.336-.12.108-.24.228-.371.348-4.552 4.552-9.117 9.092-13.657 13.656-.958.958-2.012 1.725-3.246 2.288-.61.276-1.198.599-1.809.898-1.186.576-2.24.156-2.72-1.078-.011-.036-.047-.072-.071-.108v-.814c.395-.803.803-1.593 1.174-2.408.575-1.234 1.378-2.3 2.336-3.258 4.54-4.516 9.056-9.056 13.596-13.585.12-.12.3-.191.467-.299a15.85 15.85 0 0 1-.419-.455c-.814-.815-1.629-1.63-2.432-2.456-.958-.982-.958-2.336-.012-3.342.168-.18.372-.324.492-.515.12-.204.275-.515.191-.683-.263-.599-.694-1.09-1.341-1.342-.827-.335-1.713-.575-2.468-1.03-2.444-1.473-4.109-3.654-5.307-6.217-.311-.671-.79-1.306-1.234-1.965-.203-.3-.527-.395-.874-.311-.348.084-.515.347-.551.683-.06.479-.3.814-.755.958-.467.144-.826-.048-1.174-.36C.851 6.386.24 5.51 0 4.41V3.33c.036-.108.072-.227.096-.335C.443 1.689 1.222.755 2.48.264c.275-.108.563-.18.85-.264h1.078C5.63.252 6.493 1.054 7.343 1.917A9753.39 9753.39 0 0 0 23.072 17.74c.12.132.204.3.275.407l4.78-4.743c-.36-.336-.755-.66-1.102-1.018-.922-.959-.934-2.372-.048-3.27.875-.887 2.324-.911 3.294-.049.144.132.276.264.468.431.095-.12.18-.227.275-.323 2.228-2.48 4.444-4.983 6.708-7.427.492-.54 1.138-.958 1.761-1.342.348-.215.815-.275 1.222-.407h1.246Zm-3.833 35.04a29316.768 29316.768 0 0 0-19.083-19.18 375.278 375.278 0 0 0-3.09 3.055c-.564.563-.564.899.011 1.486 2.252 2.264 4.492 4.528 6.745 6.78 1.425 1.413 2.815 2.863 4.312 4.192 2.216 1.965 4.732 3.402 7.727 3.81 1.102.144 2.204.132 3.378-.144Zm-2.66-20.869c2.684-2.42 5.367-4.827 8.038-7.247.623-.563.935-1.306.97-2.156a3.124 3.124 0 0 0-1.904-2.983c-1.234-.515-2.6-.228-3.534.779-1.066 1.162-2.108 2.335-3.15 3.497-1.354 1.498-2.696 2.995-4.025 4.469 1.21 1.21 2.395 2.408 3.605 3.641Zm-16.842 11.01c-.132.119-.192.167-.24.227A7949.074 7949.074 0 0 0 4.193 39.615a6.871 6.871 0 0 0-1.114 1.45c-.527.922-.983 1.88-1.438 2.839-.06.131-.048.359.024.467.048.072.312.06.431 0 .492-.216.959-.48 1.45-.707 1.174-.551 2.252-1.21 3.174-2.144 4.54-4.576 9.117-9.128 13.68-13.692.12-.12.3-.192.516-.336-.587-.563-1.043-.994-1.486-1.437-.263-.276-.515-.563-.814-.875ZM2.3 5.545c1.03-1.749 3.139-1.557 4.109-.131.443.658.898 1.317 1.222 2.024.766 1.665 1.773 3.15 3.09 4.432.959.935 2.085 1.606 3.379 1.965.131.036.335.024.43-.048.432-.371.827-.767 1.259-1.174-.108-.132-.168-.192-.228-.264-3.33-3.342-6.648-6.684-9.979-10.026-.096-.096-.191-.192-.3-.264-.97-.754-2.371-.634-3.162.276-.838.934-.766 2.3.18 3.21Zm26.953 9.152c-1.545 1.534-3.079 3.067-4.552 4.529l2.084 2.048 4.505-4.504c-.66-.683-1.378-1.402-2.037-2.073Zm6.924 2.66c-.203-.288-.335-.551-.539-.755a1022.445 1022.445 0 0 0-6.23-6.217c-.107-.108-.203-.264-.335-.288-.263-.048-.587-.12-.802-.012-.192.096-.407.42-.396.623.012.264.192.563.396.755 2.06 2.084 4.145 4.157 6.217 6.23.12.119.228.287.371.31.264.049.575.096.803 0 .204-.095.323-.383.515-.646ZM16.915 13.74c-.396.348-.767.67-1.126.994.335.396.658.767.91 1.055.371-.36.767-.731 1.186-1.127l-.755-.718a2.503 2.503 0 0 0-.215-.204Z"/><path d="M18.412 36.728c.036-.096.072-.251.144-.395.467-.935.922-1.869 1.401-2.803.264-.515.671-.683 1.09-.468.42.216.528.647.276 1.15-.48.959-.958 1.917-1.438 2.887-.191.384-.503.552-.922.444-.347-.12-.539-.384-.55-.815ZM23.779 36.033c0-.49-.012-.982 0-1.485.012-.491.3-.79.718-.815.444-.024.791.288.803.779.024 1.006.024 2 0 3.007-.012.49-.36.814-.79.802-.42-.012-.707-.335-.731-.814-.012-.48 0-.97 0-1.474Z"/><path fill="#878787" d="M16.915 13.74c.024.024.12.108.203.192l.755.718c-.42.408-.815.78-1.186 1.127-.252-.288-.563-.66-.91-1.055.371-.311.742-.634 1.138-.982Z"/><path d="M13.8 25.456c-.096.12-.24.407-.467.527-.982.527-1.989 1.018-2.995 1.51-.42.203-.85.06-1.042-.312-.204-.384-.06-.827.371-1.054a99.262 99.262 0 0 1 2.995-1.498c.551-.263 1.126.084 1.138.827ZM10.721 22.233c-.479 0-.958.012-1.437 0-.515-.012-.827-.3-.839-.742-.012-.444.3-.767.803-.779a60.808 60.808 0 0 1 2.959 0c.503.012.814.335.814.767 0 .443-.311.742-.826.754-.491.012-.982 0-1.474 0Z"/></svg>
